X:1
T:Title
%%score { ( 1 4 ) | ( 2 3 ) }
L:1/8
M:4/4
K:Ab
V:1 treble nm="Grand Piano"
V:4 treble 
V:2 bass 
V:3 bass 
V:1
 z4 z2[Q:1/4=90] [FA]2 | [EA]2 [CA]2 [DF]2 [EA]2 |[M:9/8] [DB]2 [CG]- [CG] [A,F]2- [A,F] [DF]2 | %3
[M:4/4] [EG]2 [EA]2 [EB]2 [CE]2 |[M:7/8] [B,EG]2 [A,=DF]2 [G,E]3 |[M:1/4] E2 | %6
[M:4/4] A2 B2 c2 [EA]2 |[M:9/8] z2 [Ec]- [Ec] z z z3 |[M:4/4] z4 z2 c2 |[M:7/8] z2 B2 z z2 |] %10
V:2
 z4 z2 [F,C]2 | [C,A,]2 [A,,A,]2 [D,A,]2 [C,A,]2 | %2
[M:9/8] [B,,F,]2 [C,=E,]- [C,E,] [F,,F,]2- [F,,F,] [D,A,]2 |[M:4/4] [D,B,]2 [C,A,]2 [G,,E,]2 z F | %4
[M:7/8] B,,2 B,,2 E,3 |[M:1/4] E,2 |[M:4/4] [F,C]2 [G,B,E]2 [A,E]2 [C,A,]2 | %7
[M:9/8] [B,,G,]2 A,- A, [E,G,E]2- [E,G,E] [E,G,E]2 |[M:4/4] [A,E]2 [C,A,]2 [D,A,]2 .[F,A,F]2 | %9
[M:7/8] [D,A,]2 z D A,,3 |] %10
V:3
 x8 | x8 |[M:9/8] x9 |[M:4/4] z4 z2 A,,2 |[M:7/8] x7 |[M:1/4] x2 |[M:4/4] x8 |[M:9/8] z2 C, z3 z3 | %8
[M:4/4] x8 |[M:7/8] z2 [E,G,]2 z z2 |] %10
V:4
 x8 | x8 |[M:9/8] x9 |[M:4/4] x8 |[M:7/8] x7 |[M:1/4] x2 |[M:4/4] x8 |[M:9/8] .[Ed]3 D, B2- B B2 | %8
[M:4/4] c2 [_Ge]2 [Fd]2 z E, |[M:7/8] [FB]2 E z [A,CA]3 |] %10

